src/topics/icons/centos.svg

<svg height="144" preserveAspectRatio="xMidYMid" viewBox="0 0 512 144" width="512" xmlns="http://www.w3.org/2000/svg"><path d="m511.220522 84.5458713c0 6.0232359-1.907274 11.0973256-5.722822 15.2222691-3.815548 4.1249436-8.66308 6.1869166-14.542597 6.1869166l-46.44329-.097809v-12.3738328h38.280234c2.56499 0 4.722776-.6227836 6.473357-1.8663548 2.002089-1.4401871 3.003134-3.4043508 3.003134-5.8924912 0-5.8266199-3.941302-8.7399298-11.82191-8.7399298h-19.32825c-5.566128 0-10.445598-1.8004835-14.636413-5.4014503-4.190815-3.6009669-6.285723-8.1840156-6.285723-13.7491462 0-6.1539805 2.033029-11.1292632 6.098089-14.926846 4.127938-3.8624562 9.539369-5.7946823 16.232297-5.7946823h44.378323v11.7849825h-39.124585c-1.751578 0-3.534097.7854659-5.347555 2.3573957-1.751579 1.5050604-2.627868 3.3055438-2.627868 5.4004522 0 2.3573957.844351 4.3544952 2.533053 5.9912983 1.751579 1.5709317 3.847485 2.3563976 6.286721 2.3563976h21.298402c6.630051 0 11.82191 1.8004835 15.574581 5.4014503 3.815548 3.5350955 5.722822 8.249887 5.722822 14.1413801zm-91.801699-13.5515321c0-6.7438285-1.533006-12.1123431-4.59802-16.1065419-3.440281-4.4513061-8.537325-6.6779571-15.29313-6.6779571-6.630051 0-11.634277 2.3903313-15.011681 7.168998-2.814503 3.9941988-4.221754 9.1990331-4.221754 15.615501 0 7.3975516 1.125801 12.8648733 3.377403 16.3999688 3.127891 4.9104093 8.913591 7.365614 17.3571 7.365614 7.131072 0 12.1343-2.3903314 15.01168-7.168998 2.251602-3.7317115 3.378402-9.2639065 3.378402-16.5965848zm16.700382.3922339c0 13.3559142-3.534098 22.9152437-10.602293 28.6759919-5.75476 4.64892-14.13639 6.97338-25.144889 6.97338-12.197177 0-21.203586-2.684756-27.021224-8.0532705-6.37954-5.8924913-9.570308-15.3530137-9.570308-28.3815673 0-10.6711579 2.846441-18.9859181 8.538324-24.9442807 6.191906-6.4813411 15.449824-9.7220117 27.771758-9.7220117 13.573489 0 23.142799 3.1099259 28.709926 9.3287797 4.87947 5.5002574 7.318706 14.2072515 7.318706 26.1229786zm-76.56446-5.7936842h-12.666262v23.0779259c0 2.0949084.687657 3.8305185 2.063969 5.2048343 1.563946 1.3753139 3.627914 2.0619727 6.191907 2.0619727h3.847485v9.9196262h-12.103361c-3.627914 0-6.724865-1.375314-9.288857-4.124944-1.501068-1.636803-2.471174-3.4372865-2.90832-5.4014502-.438144-1.9641637-.656717-4.2886238-.656717-6.9723821v-23.7655828h-8.256874v-10.6062846h8.256874v-17.8740897h12.853894v17.8740897h12.666262zm-37.456842 40.2643591h-13.041529v-33.488593c0-.8513373-.187633-1.6038675-.5629-2.2585887-.375267-.7205926-.907228-1.4072515-1.594885-2.0619727-1.250558-1.1128265-2.689747-1.6697388-4.315571-1.6697388h-12.760078v39.4788932h-13.041529v-50.8706437h24.957256c4.440327 0 7.662035.2614893 9.663126.7854659 3.127891.7854659 5.630004 2.521076 7.50634 5.2048343 2.126846 3.1428616 3.18977 6.5801481 3.18977 10.3118596zm-53.502503.294425h-22.893287c-5.567127 0-10.414659-2.488141-14.542596-7.4634235-4.066059-5.041154-6.099088-10.8358362-6.099088-17.3830487 0-7.1360624 2.220663-13.2900429 6.661988-18.4619415 4.503205-5.23777 9.507431-7.856655 15.01168-7.856655h21.767486v10.5074776h-15.950846c-2.001092 0-3.721731.196616-5.159922.5898479-1.376312.3273606-2.657809 1.0150176-3.846488 2.0619727-2.189723 1.9641638-3.283586 4.6159844-3.283586 7.954464h28.147025v10.6062846h-28.053208c0 1.5719298.155695 2.9133099.469083 4.0261364.375267 1.0479532 1.093864 2.1278441 2.157786 3.2416686 1.062924 1.0469552 2.314479 1.7675478 3.75267 2.1597817 1.501069.3273606 3.315525.491041 5.441373.491041h16.41993zm-48.284694-.294425h-28.991377c-2.940257 0-5.848577-.426168-8.725957-1.276507-5.566128-1.767548-9.976514-5.8276182-13.229161-12.1782147-2.93926-5.7607485-4.409388-12.4716413-4.409388-20.1316803 0-7.3985497 1.313434-13.9457622 3.940304-19.6416374 2.87738-6.2847252 6.974378-10.573349 12.290994-12.8648733 4.128936-1.7675478 8.35069-2.6508226 12.666261-2.6508226h26.27069v13.1592982h-27.302674c-4.441326 0-7.662035 2.520078-9.664125 7.561232-1.562947 3.9283275-2.345419 9.0682885-2.345419 15.418885 0 5.3685146 1.001045 9.9186277 3.002136 13.6503392 2.31448 4.3864327 5.567127 6.5801481 9.757942 6.5801481l26.739774-.098807z"/><path d="m60.671501 66.7356569 5.1908616 5.1619181-5.1908616 5.1609201h-36.5396336v17.1964133l-22.28347754-22.3573334 22.28347754-21.9820662v16.8201481z" fill="#932279"/><path d="m77.2171852 60.671501-5.1609201 5.1908616-5.1609201-5.1908616v-36.5396336h-17.1974113l22.3583314-22.28347754 21.9810682 22.28347754h-16.8201481z" fill="#efa724"/><path d="m83.2823392 77.2171852-5.1918597-5.1609201 5.1918597-5.1609201h36.5386358v-17.1974113l22.284475 22.3583314-22.284475 21.9810682v-16.8201481z" fill="#262577"/><path d="m66.7356569 83.2823392 5.1609201-5.1918597 5.1619181 5.1918597v36.5396338h17.1964133l-22.3583314 22.283477-21.9800702-22.283477h16.8191501z" fill="#9ccd2a"/><path d="m22.822425 22.822425h44.3972865v44.3982846h-44.3972865z" fill="#9ccd2a"/><path d="m21.2365224 21.2365224h47.5690916v47.5690916h-47.5690916zm3.170807 44.3982846h41.2264796v-41.2264795h-41.2264796z" fill="#fff"/><path d="m76.7331306 22.822425h44.3972864v44.3982846h-44.3972864z" fill="#932279"/><path d="m75.1482261 21.2365224h47.5690919v47.5690916h-47.5690919zm3.170807 44.3982846h41.2264799v-41.2264795h-41.2264799z" fill="#fff"/><path d="m76.7331306 76.7331306h44.3972864v44.3982844h-44.3972864z" fill="#efa724"/><path d="m75.1482261 75.1482261h47.5690919v47.5700899h-47.5690919zm3.170807 44.3972869h41.2264799v-41.2264799h-41.2264799z" fill="#fff"/><path d="m22.822425 76.7331306h44.3972865v44.3982844h-44.3972865z" fill="#262577"/><g fill="#fff"><path d="m21.2365224 75.1482261h47.5690916v47.5700899h-47.5690916zm3.170807 44.3972869h41.2264796v-41.2264799h-41.2264796z"/><path d="m33.8558752 105.613723-33.6373021-33.6373019 33.6363041-33.6363041 33.6373021 33.6363041zm-29.15206233-33.6373019 29.15206233 29.1520619 29.1510644-29.1520619-29.1520624-29.1510644z"/><path d="m71.9764211 67.4921793-33.6363041-33.6363041 33.6363041-33.6373021 33.6363039 33.6373021zm-29.1510644-33.6363041 29.1510644 29.1510644 29.1520619-29.1510644-29.1520619-29.15206233z"/><path d="m110.097965 105.613723-33.6363042-33.6373019 33.6363042-33.6363041 33.636304 33.6363041zm-29.1520625-33.6373019 29.1520625 29.1520619 29.151064-29.1520619-29.151064-29.1510644z"/><path d="m71.9764211 143.734269-33.6363041-33.636304 33.6363041-33.6363042 33.6363039 33.6363042zm-29.1510644-33.636304 29.1510644 29.151064 29.1520619-29.151064-29.1520619-29.1510644z"/></g></svg>

<?xml version="1.0" encoding="UTF-8" standalone="no"?>
<svg width="512px" height="144px" viewBox="0 0 512 144" version="1.1" xmlns="http://www.w3.org/2000/svg" xmlns:xlink="http://www.w3.org/1999/xlink" preserveAspectRatio="xMidYMid">
	<g>
		<path d="M511.220522,84.5458713 C511.220522,90.5691072 509.313248,95.6431969 505.4977,99.7681404 C501.682152,103.893084 496.83462,105.955057 490.955103,105.955057 L444.511813,105.857248 L444.511813,93.4834152 L482.792047,93.4834152 C485.357037,93.4834152 487.514823,92.8606316 489.265404,91.6170604 C491.267493,90.1768733 492.268538,88.2127096 492.268538,85.7245692 C492.268538,79.8979493 488.327236,76.9846394 480.446628,76.9846394 L461.118378,76.9846394 C455.55225,76.9846394 450.67278,75.1841559 446.481965,71.5831891 C442.29115,67.9822222 440.196242,63.3991735 440.196242,57.8340429 C440.196242,51.6800624 442.229271,46.7047797 446.294331,42.9071969 C450.422269,39.0447407 455.8337,37.1125146 462.526628,37.1125146 L506.904951,37.1125146 L506.904951,48.8974971 L467.780366,48.8974971 C466.028788,48.8974971 464.246269,49.682963 462.432811,51.2548928 C460.681232,52.7599532 459.804943,54.5604366 459.804943,56.655345 C459.804943,59.0127407 460.649294,61.0098402 462.337996,62.6466433 C464.089575,64.217575 466.185481,65.0030409 468.624717,65.0030409 L489.923119,65.0030409 C496.55317,65.0030409 501.745029,66.8035244 505.4977,70.4044912 C509.313248,73.9395867 511.220522,78.6543782 511.220522,84.5458713 L511.220522,84.5458713 Z M419.418823,70.9943392 C419.418823,64.2505107 417.885817,58.8819961 414.820803,54.8877973 C411.380522,50.4364912 406.283478,48.2098402 399.527673,48.2098402 C392.897622,48.2098402 387.893396,50.6001715 384.515992,55.3788382 C381.701489,59.373037 380.294238,64.5778713 380.294238,70.9943392 C380.294238,78.3918908 381.420039,83.8592125 383.671641,87.394308 C386.799532,92.3047173 392.585232,94.759922 401.028741,94.759922 C408.159813,94.759922 413.163041,92.3695906 416.040421,87.590924 C418.292023,83.8592125 419.418823,78.3270175 419.418823,70.9943392 L419.418823,70.9943392 Z M436.119205,71.3865731 C436.119205,84.7424873 432.585107,94.3018168 425.516912,100.062565 C419.762152,104.711485 411.380522,107.035945 400.372023,107.035945 C388.174846,107.035945 379.168437,104.351189 373.350799,98.9826745 C366.971259,93.0901832 363.780491,83.6296608 363.780491,70.6011072 C363.780491,59.9299493 366.626932,51.6151891 372.318815,45.6568265 C378.510721,39.1754854 387.768639,35.9348148 400.090573,35.9348148 C413.664062,35.9348148 423.233372,39.0447407 428.800499,45.2635945 C433.679969,50.7638519 436.119205,59.470846 436.119205,71.3865731 L436.119205,71.3865731 Z M359.554745,65.5928889 L346.888483,65.5928889 L346.888483,88.6708148 C346.888483,90.7657232 347.57614,92.5013333 348.952452,93.8756491 C350.516398,95.250963 352.580366,95.9376218 355.144359,95.9376218 L358.991844,95.9376218 L358.991844,105.857248 L346.888483,105.857248 C343.260569,105.857248 340.163618,104.481934 337.599626,101.732304 C336.098558,100.095501 335.128452,98.2950175 334.691306,96.3308538 C334.253162,94.3666901 334.034589,92.04223 334.034589,89.3584717 L334.034589,65.5928889 L325.777715,65.5928889 L325.777715,54.9866043 L334.034589,54.9866043 L334.034589,37.1125146 L346.888483,37.1125146 L346.888483,54.9866043 L359.554745,54.9866043 L359.554745,65.5928889 L359.554745,65.5928889 Z M322.097903,105.857248 L309.056374,105.857248 L309.056374,72.368655 C309.056374,71.5173177 308.868741,70.7647875 308.493474,70.1100663 C308.118207,69.3894737 307.586246,68.7028148 306.898589,68.0480936 C305.648031,66.9352671 304.208842,66.3783548 302.583018,66.3783548 L289.82294,66.3783548 L289.82294,105.857248 L276.781411,105.857248 L276.781411,54.9866043 L301.738667,54.9866043 C306.178994,54.9866043 309.400702,55.2480936 311.401793,55.7720702 C314.529684,56.5575361 317.031797,58.2931462 318.908133,60.9769045 C321.034979,64.1197661 322.097903,67.5570526 322.097903,71.2887641 L322.097903,105.857248 L322.097903,105.857248 Z M268.5954,106.151673 L245.702113,106.151673 C240.134986,106.151673 235.287454,103.663532 231.159517,98.6882495 C227.093458,93.6470955 225.060429,87.8524133 225.060429,81.3052008 C225.060429,74.1691384 227.281092,68.0151579 231.722417,62.8432593 C236.225622,57.6054893 241.229848,54.9866043 246.734097,54.9866043 L268.501583,54.9866043 L268.501583,65.4940819 L252.550737,65.4940819 C250.549645,65.4940819 248.829006,65.6906979 247.390815,66.0839298 C246.014503,66.4112904 244.733006,67.0989474 243.544327,68.1459025 C241.354604,70.1100663 240.260741,72.7618869 240.260741,76.1003665 L268.407766,76.1003665 L268.407766,86.7066511 L240.354558,86.7066511 C240.354558,88.2785809 240.510253,89.619961 240.823641,90.7327875 C241.198908,91.7807407 241.917505,92.8606316 242.981427,93.9744561 C244.044351,95.0214113 245.295906,95.7420039 246.734097,96.1342378 C248.235166,96.4615984 250.049622,96.6252788 252.17547,96.6252788 L268.5954,96.6252788 L268.5954,106.151673 L268.5954,106.151673 Z M220.310706,105.857248 L191.319329,105.857248 C188.379072,105.857248 185.470752,105.43108 182.593372,104.580741 C177.027244,102.813193 172.616858,98.7531228 169.364211,92.4025263 C166.424951,86.6417778 164.954823,79.930885 164.954823,72.270846 C164.954823,64.8722963 166.268257,58.3250838 168.895127,52.6292086 C171.772507,46.3444834 175.869505,42.0558596 181.186121,39.7643353 C185.315057,37.9967875 189.536811,37.1135127 193.852382,37.1135127 L220.123072,37.1135127 L220.123072,50.2728109 L192.820398,50.2728109 C188.379072,50.2728109 185.158363,52.7928889 183.156273,57.8340429 C181.593326,61.7623704 180.810854,66.9023314 180.810854,73.2529279 C180.810854,78.6214425 181.811899,83.1715556 183.81299,86.9032671 C186.12747,91.2896998 189.380117,93.4834152 193.570932,93.4834152 L220.310706,93.3846082 L220.310706,105.857248 L220.310706,105.857248 Z" fill="#000000"></path>
		<path d="M60.671501,66.7356569 L65.8623626,71.897575 L60.671501,77.0584951 L24.1318674,77.0584951 L24.1318674,94.2549084 L1.84838986,71.897575 L24.1318674,49.9155088 L24.1318674,66.7356569 L60.671501,66.7356569 L60.671501,66.7356569 Z" fill="#932279"></path>
		<path d="M77.2171852,60.671501 L72.0562651,65.8623626 L66.895345,60.671501 L66.895345,24.1318674 L49.6979337,24.1318674 L72.0562651,1.84838986 L94.0373333,24.1318674 L77.2171852,24.1318674 L77.2171852,60.671501 L77.2171852,60.671501 Z" fill="#EFA724"></path>
		<path d="M83.2823392,77.2171852 L78.0904795,72.0562651 L83.2823392,66.895345 L119.820975,66.895345 L119.820975,49.6979337 L142.10545,72.0562651 L119.820975,94.0373333 L119.820975,77.2171852 L83.2823392,77.2171852 L83.2823392,77.2171852 Z" fill="#262577"></path>
		<path d="M66.7356569,83.2823392 L71.896577,78.0904795 L77.0584951,83.2823392 L77.0584951,119.821973 L94.2549084,119.821973 L71.896577,142.10545 L49.9165068,119.821973 L66.7356569,119.821973 L66.7356569,83.2823392 L66.7356569,83.2823392 Z" fill="#9CCD2A"></path>
		<path d="M22.822425,22.822425 L67.2197115,22.822425 L67.2197115,67.2207096 L22.822425,67.2207096 L22.822425,22.822425 Z" fill="#9CCD2A"></path>
		<path d="M21.2365224,21.2365224 L68.805614,21.2365224 L68.805614,68.805614 L21.2365224,68.805614 L21.2365224,21.2365224 Z M24.4073294,65.634807 L65.633809,65.634807 L65.633809,24.4083275 L24.4073294,24.4083275 L24.4073294,65.634807 Z" fill="#FFFFFF"></path>
		<path d="M76.7331306,22.822425 L121.130417,22.822425 L121.130417,67.2207096 L76.7331306,67.2207096 L76.7331306,22.822425 Z" fill="#932279"></path>
		<path d="M75.1482261,21.2365224 L122.717318,21.2365224 L122.717318,68.805614 L75.1482261,68.805614 L75.1482261,21.2365224 Z M78.3190331,65.634807 L119.545513,65.634807 L119.545513,24.4083275 L78.3190331,24.4083275 L78.3190331,65.634807 Z" fill="#FFFFFF"></path>
		<path d="M76.7331306,76.7331306 L121.130417,76.7331306 L121.130417,121.131415 L76.7331306,121.131415 L76.7331306,76.7331306 Z" fill="#EFA724"></path>
		<path d="M75.1482261,75.1482261 L122.717318,75.1482261 L122.717318,122.718316 L75.1482261,122.718316 L75.1482261,75.1482261 Z M78.3190331,119.545513 L119.545513,119.545513 L119.545513,78.3190331 L78.3190331,78.3190331 L78.3190331,119.545513 Z" fill="#FFFFFF"></path>
		<path d="M22.822425,76.7331306 L67.2197115,76.7331306 L67.2197115,121.131415 L22.822425,121.131415 L22.822425,76.7331306 Z" fill="#262577"></path>
		<path d="M21.2365224,75.1482261 L68.805614,75.1482261 L68.805614,122.718316 L21.2365224,122.718316 L21.2365224,75.1482261 Z M24.4073294,119.545513 L65.633809,119.545513 L65.633809,78.3190331 L24.4073294,78.3190331 L24.4073294,119.545513 Z" fill="#FFFFFF"></path>
		<path d="M33.8558752,105.613723 L0.218573099,71.9764211 L33.8548772,38.340117 L67.4921793,71.9764211 L33.8558752,105.613723 L33.8558752,105.613723 Z M4.70381287,71.9764211 L33.8558752,101.128483 L63.0069396,71.9764211 L33.8548772,42.8253567 L4.70381287,71.9764211 L4.70381287,71.9764211 Z" fill="#FFFFFF"></path>
		<path d="M71.9764211,67.4921793 L38.340117,33.8558752 L71.9764211,0.218573099 L105.612725,33.8558752 L71.9764211,67.4921793 L71.9764211,67.4921793 Z M42.8253567,33.8558752 L71.9764211,63.0069396 L101.128483,33.8558752 L71.9764211,4.70381287 L42.8253567,33.8558752 L42.8253567,33.8558752 Z" fill="#FFFFFF"></path>
		<path d="M110.097965,105.613723 L76.4616608,71.9764211 L110.097965,38.340117 L143.734269,71.9764211 L110.097965,105.613723 L110.097965,105.613723 Z M80.9459025,71.9764211 L110.097965,101.128483 L139.249029,71.9764211 L110.097965,42.8253567 L80.9459025,71.9764211 L80.9459025,71.9764211 Z" fill="#FFFFFF"></path>
		<path d="M71.9764211,143.734269 L38.340117,110.097965 L71.9764211,76.4616608 L105.612725,110.097965 L71.9764211,143.734269 L71.9764211,143.734269 Z M42.8253567,110.097965 L71.9764211,139.249029 L101.128483,110.097965 L71.9764211,80.9469006 L42.8253567,110.097965 L42.8253567,110.097965 Z" fill="#FFFFFF"></path>
	</g>
</svg>
